brandFactory_export/2.Regular/Factura_Plan_Documento_2Regular.svg

<?xml version="1.0" encoding="UTF-8"?>
<svg width="24px" height="24px" viewBox="0 0 24 24" version="1.1" xmlns="http://www.w3.org/2000/svg" xmlns:xlink="http://www.w3.org/1999/xlink">
    <title>2.Regular/Factura_Plan_Documento_2Regular</title>
    <g id="Symbols" stroke="none" stroke-width="1" fill="none" fill-rule="evenodd">
        <g id="2.Regular/Factura_Plan_Documento_2Regular" fill="#5CB615" fill-rule="nonzero">
            <path d="M13.1983193,-5.32907052e-13 C13.3697479,-5.32907052e-13 13.5378151,0.0672268908 13.6621849,0.18487395 L20.2168067,6.40336134 C20.3512605,6.53109244 20.4252101,6.70588235 20.4252101,6.8907563 L20.4252101,22.302521 C20.4252101,23.0084034 19.8033613,23.6302521 19.097479,23.6302521 L4.34117647,23.6302521 C3.63529412,23.6302521 3.01344538,23.0084034 3.01344538,22.302521 L3.01344538,1.32773109 C3.01344538,0.645378151 3.65882353,-5.32907052e-13 4.34117647,-5.32907052e-13 L13.1983193,-5.32907052e-13 Z M12.1894454,1.344 L4.38487395,1.34453782 C4.37478992,1.3512605 4.36470588,1.36134454 4.35798319,1.37142857 L4.35798319,22.2722689 C4.36134454,22.2756303 4.36806723,22.2823529 4.37478992,22.2857143 L19.0739496,22.2857143 L19.0806723,22.2789916 L19.0804454,8.218 L16.1394958,8.21848739 C14.9932773,8.21848739 14.005042,7.83865546 13.2890756,7.11932773 C12.5731092,6.4 12.189916,5.41512605 12.189916,4.26890756 L12.1894454,1.344 Z M15.9714286,18.6722689 C16.3411765,18.6722689 16.6436975,18.9747899 16.6436975,19.3445378 C16.6436975,19.7142857 16.3411765,20.0168067 15.9714286,20.0168067 L7.45042017,20.0168067 C7.08067227,20.0168067 6.77815126,19.7142857 6.77815126,19.3445378 C6.77815126,18.9747899 7.08067227,18.6722689 7.45042017,18.6722689 L15.9714286,18.6722689 Z M15.9714286,15.0689076 C16.3411765,15.0689076 16.6436975,15.3714286 16.6436975,15.7411765 C16.6436975,16.1109244 16.3411765,16.4134454 15.9714286,16.4134454 L7.45042017,16.4134454 C7.08067227,16.4134454 6.77815126,16.1109244 6.77815126,15.7411765 C6.77815126,15.3714286 7.08067227,15.0689076 7.45042017,15.0689076 L15.9714286,15.0689076 Z M15.9714286,11.4621849 C16.3411765,11.4621849 16.6436975,11.7647059 16.6436975,12.1344538 C16.6436975,12.5042017 16.3411765,12.8067227 15.9714286,12.8067227 L7.45042017,12.8067227 C7.08067227,12.8067227 6.77815126,12.5042017 6.77815126,12.1344538 C6.77815126,11.7647059 7.08067227,11.4621849 7.45042017,11.4621849 L15.9714286,11.4621849 Z M13.5344454,1.919 L13.5344538,4.26890756 C13.5344538,5.05210084 13.7798319,5.70756303 14.2403361,6.16806723 C14.7008403,6.62857143 15.3596639,6.87394958 16.1394958,6.87394958 L18.7574454,6.873 L13.5344454,1.919 Z" id="Factura_Plan_Documento_2Regular"></path>
        </g>
    </g>
</svg>

<svg width="24" height="24" viewBox="0 0 24 24" xmlns="http://www.w3.org/2000/svg"><path d="M13.198 0a.68.68 0 01.464.185l6.555 6.218a.669.669 0 01.208.488v15.412c0 .705-.622 1.327-1.328 1.327H4.341c-.706 0-1.328-.622-1.328-1.327V1.328C3.013.645 3.66 0 4.341 0h8.857zM12.19 1.344H4.385a.102.102 0 00-.027.027v20.901c.003.004.01.01.017.014h14.699l.007-.007V8.218h-2.942c-1.146 0-2.134-.38-2.85-1.099-.716-.719-1.1-1.704-1.1-2.85V1.344zm3.782 17.328c.37 0 .673.303.673.673 0 .37-.303.672-.673.672h-8.52a.674.674 0 01-.673-.672c0-.37.303-.673.672-.673h8.521zm0-3.603c.37 0 .673.302.673.672 0 .37-.303.672-.673.672h-8.52a.674.674 0 01-.673-.672c0-.37.303-.672.672-.672h8.521zm0-3.607c.37 0 .673.303.673.672 0 .37-.303.673-.673.673h-8.52a.674.674 0 01-.673-.673c0-.37.303-.672.672-.672h8.521zM13.534 1.92v2.35c0 .783.246 1.439.706 1.9.46.46 1.12.705 1.9.705l2.617-.001-5.223-4.954z" fill="#5CB615" fill-rule="nonzero"/></svg>
